X:1
T:up is down
T:up is down
T:yo
C:yo
L:1/8
M:6/8
K:F
V:1 treble nm="Flauta" snm="Fl."
V:1
|: f2 z f2 z | efe d2 A/d/ | f2 z f2 z | efe d2 A/d/ | f2 z f2 z | efe def | g2 z c'2 z | %7
 fgf ede :| f2 f f2 f | d'c'b age | d'(a a4) | a4 gf | gc' (c'4 | c'4) z2 | c'(e e4) | e4 de | %16
 (f4 f2) | d'c'd' f'e'c' | d'(a (a4) | a4) gf | g(c' (c'4) | c'4) z2 | c'(e (e4) | e4) de | %24
 (f4 f2) | d'c'b age | d6 | d6 | f6 | f6 | c6 | c6 | e6 | e6 | d6 | d6 | f6 | f6 | a6 | a6 | f6 | %41
 e2 z4 | f2 z f2 z | efe d2 A/d/ | f2 z f2 z | efe d2 A/d/ | f2 z f2 z | efe def | g2 z c'2 z | %49
 fgf ede | d6 | z6 |] %52

